X: 1
T: The Frost Is All Over
R: jig
M: 6/8
L: 1/8
K: Dmaj
~d3 edc|dAF GFE|DFA dFA|Bcd efg|
fed edc|dAF GFE|DFA dFA|B2c d3:|
|:~f3 ~a3|~g3 bag|f2a afd|1 ~g3 efg|
fef afd|~g3 bag|fga efg|fdc d3:|
2 ~g3 e2g|fga efg|fdB AFA|Bcd ece|fd/e/f gfe||


Tune 448	Setting 23871

